assets/icons/more.svg

<svg width="25" height="24" viewBox="0 0 25 24" fill="none" xmlns="http://www.w3.org/2000/svg">
<path fill-rule="evenodd" clip-rule="evenodd" d="M10.3621 12.0005C10.3621 11.034 11.1456 10.2505 12.1121 10.2505H12.1211C13.0876 10.2505 13.8711 11.034 13.8711 12.0005C13.8711 12.967 13.0876 13.7505 12.1211 13.7505H12.1121C11.1456 13.7505 10.3621 12.967 10.3621 12.0005Z" fill="white"/>
<path fill-rule="evenodd" clip-rule="evenodd" d="M10.3542 18.0005C10.3542 17.034 11.1377 16.2505 12.1042 16.2505H12.1132C13.0797 16.2505 13.8632 17.034 13.8632 18.0005C13.8632 18.967 13.0797 19.7505 12.1132 19.7505H12.1042C11.1377 19.7505 10.3542 18.967 10.3542 18.0005Z" fill="white"/>
<path fill-rule="evenodd" clip-rule="evenodd" d="M10.3699 6.00049C10.3699 5.03399 11.1534 4.25049 12.1199 4.25049H12.1289C13.0954 4.25049 13.8789 5.03399 13.8789 6.00049C13.8789 6.96699 13.0954 7.75049 12.1289 7.75049H12.1199C11.1534 7.75049 10.3699 6.96699 10.3699 6.00049Z" fill="white"/>
</svg>

<svg xmlns="http://www.w3.org/2000/svg" width="25" height="24" fill="none" viewBox="0 0 25 24"><path fill="#fff" fill-rule="evenodd" d="M10.362 12c0-.966.784-1.75 1.75-1.75h.01a1.75 1.75 0 1 1 0 3.5h-.01a1.75 1.75 0 0 1-1.75-1.75m-.008 6c0-.966.784-1.75 1.75-1.75h.01a1.75 1.75 0 1 1 0 3.5h-.01a1.75 1.75 0 0 1-1.75-1.75m.016-12c0-.966.783-1.75 1.75-1.75h.009a1.75 1.75 0 1 1 0 3.5h-.01A1.75 1.75 0 0 1 10.37 6" clip-rule="evenodd"/></svg>
